src/lib/packages/icons/src/assets/line/youtube.svg

<svg width="24" height="24" viewBox="0 0 24 24" fill="none" xmlns="http://www.w3.org/2000/svg">
<path d="M22.31 7.00002C22.01 5.88002 21.13 5.00001 20.01 4.70001C18.4 4.27001 12.65 4.26001 12 4.26001C11.35 4.26001 5.59999 4.27001 3.98999 4.70001C2.86999 5.00001 1.99 5.88002 1.69 7.00002C1.25 8.64002 1.25 11.88 1.25 12.02C1.25 12.16 1.25 15.4 1.69 17.04C1.98 18.14 2.86999 19.01 3.98999 19.31C5.59999 19.74 11.35 19.75 12 19.75C12.65 19.75 18.4 19.74 20.01 19.31C21.13 19.01 22.02 18.14 22.31 17.04C22.75 15.4 22.75 12.16 22.75 12.02C22.75 11.88 22.75 8.64002 22.31 7.00002ZM20.86 16.65C20.7 17.24 20.24 17.7 19.62 17.86C18.42 18.18 13.71 18.25 12 18.25C10.29 18.25 5.58 18.18 4.38 17.86C3.76 17.69 3.30001 17.24 3.14001 16.65C2.75001 15.2 2.75 12.05 2.75 12.02C2.75 11.99 2.75001 8.84001 3.14001 7.39001C3.30001 6.79001 3.78 6.31001 4.38 6.15001C5.58 5.83001 10.29 5.76001 12 5.76001C13.71 5.76001 18.42 5.83001 19.62 6.15001C20.22 6.31001 20.7 6.79001 20.86 7.39001C21.25 8.84001 21.25 11.99 21.25 12.02C21.25 12.05 21.25 15.2 20.86 16.65ZM10 9.00002L15 12L10 15V9.00002Z" fill="currentColor"/>
</svg>

<svg xmlns="http://www.w3.org/2000/svg" width="24" height="24" fill="none"><path fill="currentColor" d="M22.31 7c-.3-1.12-1.18-2-2.3-2.3-1.61-.43-7.36-.44-8.01-.44-.65 0-6.4.01-8.01.44-1.12.3-2 1.18-2.3 2.3-.44 1.64-.44 4.88-.44 5.02 0 .14 0 3.38.44 5.02.29 1.1 1.18 1.97 2.3 2.27 1.61.43 7.36.44 8.01.44.65 0 6.4-.01 8.01-.44 1.12-.3 2.01-1.17 2.3-2.27.44-1.64.44-4.88.44-5.02 0-.14 0-3.38-.44-5.02Zm-1.45 9.65c-.16.59-.62 1.05-1.24 1.21-1.2.32-5.91.39-7.62.39s-6.42-.07-7.62-.39c-.62-.17-1.08-.62-1.24-1.21-.39-1.45-.39-4.6-.39-4.63 0-.03 0-3.18.39-4.63.16-.6.64-1.08 1.24-1.24 1.2-.32 5.91-.39 7.62-.39s6.42.07 7.62.39c.6.16 1.08.64 1.24 1.24.39 1.45.39 4.6.39 4.63 0 .03 0 3.18-.39 4.63ZM10 9l5 3-5 3V9Z"/></svg>
